**kern	**kern	**dynam
*part1	*part1	*part1
*staff2	*staff1	*
*I"Piano	*	*
*clefF4	*clefG2	*
*k[f#c#]	*k[f#c#]	*
=1	=1	=1
8FF#L	8r	.
(8C#' 8E#X 8A#X	(8c#'L 8e#X 8a#X	.
8C#'J) 8E# 8A#	8c#'J) 8e# 8a#	.
=	=	=
8FF#L	8r	.
(8C#' 8E#X 8A#X	(8c#'L 8e#X 8a#X	.
8C#'J) 8E# 8A#	8c#'J) 8e# 8a#	.
=	=	=
8FF#L	8r	.
(8F#' 8B	(8d#X'L 8f# 8b	.
8F#'J) 8B	8d#'J) 8f# 8b	.
=	=	=
8FF#	8r	.
(8G#X'L 8c#	(8e#X'L 8g#X 8cc#	.
8G#'J) 8c#	8e#'J) 8g# 8cc#	.
=	=	=
8FF# 8F#	8a#XL 8ff#	f
.	(8qgg#X/	.
8A#XL 8c#	(16ff#L)	.
.	16ee#XJ	.
8F#J 8A#	8ff#J)	.
=	=	=
8A#X 8c#	8a#XL 8cc# 8aa#X	.
8CC#L 8C#	8cc#	.
8G#XJ 8B 8c#	8ee#XJ	.
=	=	=
8FF# 8F#	8a#XL 8ff#	.
.	(8qgg#X/	.
8A#XL 8c#	(16ff#L)	.
.	16ee#XJ	.
8F#J 8A#	8ff#J)	.
=	=	=
*-	*-	*-
!!!system-decoration: {(s1,s2)}
